src/catppuccin-mocha-maroon-cursors/right_side.svg

<?xml version="1.0" encoding="UTF-8" standalone="no"?>
<svg
   id="svg5327"
   width="32"
   height="32"
   version="1.1"
   sodipodi:docname="right_side.svg"
   inkscape:version="1.1.2 (0a00cf5339, 2022-02-04)"
   xmlns:inkscape="http://www.inkscape.org/namespaces/inkscape"
   xmlns:sodipodi="http://sodipodi.sourceforge.net/DTD/sodipodi-0.dtd"
   xmlns="http://www.w3.org/2000/svg"
   xmlns:svg="http://www.w3.org/2000/svg">
  <sodipodi:namedview
     id="namedview33438"
     pagecolor="#ffffff"
     bordercolor="#666666"
     borderopacity="1.0"
     inkscape:pageshadow="2"
     inkscape:pageopacity="0.0"
     inkscape:pagecheckerboard="0"
     showgrid="false"
     inkscape:zoom="25.96875"
     inkscape:cx="16.019254"
     inkscape:cy="16.019254"
     inkscape:window-width="1896"
     inkscape:window-height="1020"
     inkscape:window-x="9"
     inkscape:window-y="45"
     inkscape:window-maximized="1"
     inkscape:current-layer="svg5327" />
  <defs
     id="defs5329">
    <filter
       id="filter898"
       style="color-interpolation-filters:sRGB"
       width="1.148"
       height="1.101"
       x="-.07"
       y="-.05">
      <feGaussianBlur
         id="feGaussianBlur900"
         stdDeviation=".463" />
    </filter>
    <filter
       id="filter822"
       style="color-interpolation-filters:sRGB"
       width="1.1776"
       height="1.1210909"
       x="-0.088800001"
       y="-0.060545455">
      <feGaussianBlur
         id="feGaussianBlur824"
         stdDeviation=".555" />
    </filter>
  </defs>
  <path
     id="path880"
     style="color:#000000;font-style:normal;font-variant:normal;font-weight:normal;font-stretch:normal;font-size:medium;line-height:normal;font-family:sans-serif;font-variant-ligatures:normal;font-variant-position:normal;font-variant-caps:normal;font-variant-numeric:normal;font-variant-alternates:normal;font-feature-settings:normal;text-indent:0;text-align:start;text-decoration:none;text-decoration-line:none;text-decoration-style:solid;text-decoration-color:#000000;letter-spacing:normal;word-spacing:normal;text-transform:none;writing-mode:lr-tb;direction:ltr;text-orientation:mixed;dominant-baseline:auto;baseline-shift:baseline;text-anchor:start;white-space:normal;shape-padding:0;clip-rule:nonzero;display:inline;overflow:visible;visibility:visible;opacity:0.2;isolation:auto;mix-blend-mode:normal;color-interpolation:sRGB;color-interpolation-filters:linearRGB;solid-color:#000000;solid-opacity:1;vector-effect:none;fill:#000000;fill-opacity:1;fill-rule:nonzero;stroke:none;stroke-width:1.99994516;stroke-linecap:round;stroke-linejoin:round;stroke-miterlimit:4;stroke-dasharray:none;stroke-dashoffset:0;stroke-opacity:1;paint-order:normal;color-rendering:auto;image-rendering:auto;shape-rendering:auto;text-rendering:auto;enable-background:accumulate;filter:url(#filter822)"
     d="M 8.5008231,11.544922 A 1.0000451,1.0001 0 0 1 10.030036,10.65625 l 7.999561,4.996094 a 1.0000451,1.0001 0 0 1 0.002,1.695312 l -7.999608,5.003906 A 1.0000451,1.0001 0 0 1 8.5008231,21.533203 1.0000451,1.0001 0 0 1 8.7644811,20.826172 C 9.6166581,19.90021 10.499614,18.178831 10.500713,16.5 10.501813,14.824731 9.6138691,13.109377 8.7625281,12.179688 A 1.0000451,1.0001 0 0 1 8.5008231,11.544922 Z M 20.500165,6.5 a 1.0000451,1.0001 0 0 1 0.999945,-1 h 0.999945 A 1.0000451,1.0001 0 0 1 23.5,6.5 v 20 a 1.0000451,1.0001 0 0 1 -0.999945,1 H 21.50011 a 1.0000451,1.0001 0 0 1 -0.999945,-1 z" />
  <path
     id="path832"
     style="color:#000000;font-style:normal;font-variant:normal;font-weight:normal;font-stretch:normal;font-size:medium;line-height:normal;font-family:sans-serif;font-variant-ligatures:normal;font-variant-position:normal;font-variant-caps:normal;font-variant-numeric:normal;font-variant-alternates:normal;font-feature-settings:normal;text-indent:0;text-align:start;text-decoration:none;text-decoration-line:none;text-decoration-style:solid;text-decoration-color:#000000;letter-spacing:normal;word-spacing:normal;text-transform:none;writing-mode:lr-tb;direction:ltr;text-orientation:mixed;dominant-baseline:auto;baseline-shift:baseline;text-anchor:start;white-space:normal;shape-padding:0;clip-rule:nonzero;display:inline;overflow:visible;visibility:visible;opacity:1;isolation:auto;mix-blend-mode:normal;color-interpolation:sRGB;color-interpolation-filters:linearRGB;solid-color:#000000;solid-opacity:1;vector-effect:none;fill:#1E1E2E;fill-opacity:1;fill-rule:nonzero;stroke:none;stroke-width:1.99994516;stroke-linecap:round;stroke-linejoin:round;stroke-miterlimit:4;stroke-dasharray:none;stroke-dashoffset:0;stroke-opacity:1;paint-order:normal;color-rendering:auto;image-rendering:auto;shape-rendering:auto;text-rendering:auto;enable-background:accumulate"
     d="M 8.000823,11.044922 A 1.0000451,1.0001 0 0 1 9.530036,10.15625 l 7.999561,4.996094 a 1.0000451,1.0001 0 0 1 0.002,1.695312 L 9.531989,21.851562 A 1.0000451,1.0001 0 0 1 8.000823,21.033203 1.0000451,1.0001 0 0 1 8.264481,20.326172 C 9.116658,19.40021 9.999614,17.678831 10.000713,16 10.001813,14.324731 9.113869,12.609377 8.262528,11.679688 A 1.0000451,1.0001 0 0 1 8.000823,11.044922 Z M 20.000165,6 A 1.0000451,1.0001 0 0 1 21.00011,5 h 0.999945 A 1.0000451,1.0001 0 0 1 23,6 v 20 a 1.0000451,1.0001 0 0 1 -0.999945,1 H 21.00011 a 1.0000451,1.0001 0 0 1 -0.999945,-1 z" />
  <path
     id="path830-3"
     style="opacity:1;fill:#EBA0AC;fill-opacity:1;stroke:none;stroke-width:0;stroke-linecap:round;stroke-linejoin:round;stroke-miterlimit:4;stroke-dasharray:none;stroke-dashoffset:0;stroke-opacity:1;paint-order:normal"
     d="M 9,11.003906 17,16 9,21.003906 c 1.02032,-1.108602 1.998688,-3 2,-5.003906 0.0013,-2.003906 -0.985314,-3.888088 -2,-4.996094 z M 21,6 h 1 v 20 h -1 z" />
</svg>

<svg xmlns="http://www.w3.org/2000/svg" width="32" height="32">
    <defs>
        <filter id="a" width="1.178" height="1.121" x="-.089" y="-.061" style="color-interpolation-filters:sRGB">
            <feGaussianBlur stdDeviation=".555"/>
        </filter>
    </defs>
    <path d="M8.5 11.545a1 1 0 0 1 1.53-.889l8 4.996a1 1 0 0 1 .002 1.696l-8 5.004a1 1 0 0 1-1.531-.819 1 1 0 0 1 .263-.707c.853-.926 1.736-2.647 1.737-4.326 0-1.675-.887-3.39-1.738-4.32a1 1 0 0 1-.262-.635m12-5.045a1 1 0 0 1 1-1h1a1 1 0 0 1 1 1v20a1 1 0 0 1-1 1h-1a1 1 0 0 1-1-1z" style="color:#000;font-style:normal;font-variant:normal;font-weight:400;font-stretch:normal;font-size:medium;line-height:normal;font-family:sans-serif;font-variant-ligatures:normal;font-variant-position:normal;font-variant-caps:normal;font-variant-numeric:normal;font-variant-alternates:normal;font-feature-settings:normal;text-indent:0;text-align:start;text-decoration:none;text-decoration-line:none;text-decoration-style:solid;text-decoration-color:#000;letter-spacing:normal;word-spacing:normal;text-transform:none;writing-mode:lr-tb;direction:ltr;text-orientation:mixed;dominant-baseline:auto;baseline-shift:baseline;text-anchor:start;white-space:normal;shape-padding:0;clip-rule:nonzero;display:inline;overflow:visible;visibility:visible;opacity:.2;isolation:auto;mix-blend-mode:normal;color-interpolation:sRGB;color-interpolation-filters:linearRGB;solid-color:#000;solid-opacity:1;vector-effect:none;fill:#000;fill-opacity:1;fill-rule:nonzero;stroke:none;stroke-width:1.99994516;stroke-linecap:round;stroke-linejoin:round;stroke-miterlimit:4;stroke-dasharray:none;stroke-dashoffset:0;stroke-opacity:1;paint-order:normal;color-rendering:auto;image-rendering:auto;shape-rendering:auto;text-rendering:auto;enable-background:accumulate;filter:url(#a)"/>
    <path d="M8 11.045a1 1 0 0 1 1.53-.889l8 4.996a1 1 0 0 1 .002 1.696l-8 5.004a1 1 0 0 1-1.531-.819 1 1 0 0 1 .263-.707C9.117 19.4 10 17.68 10.001 16c0-1.675-.887-3.39-1.738-4.32A1 1 0 0 1 8 11.045M20 6a1 1 0 0 1 1-1h1a1 1 0 0 1 1 1v20a1 1 0 0 1-1 1h-1a1 1 0 0 1-1-1z" style="color:#000;font-style:normal;font-variant:normal;font-weight:400;font-stretch:normal;font-size:medium;line-height:normal;font-family:sans-serif;font-variant-ligatures:normal;font-variant-position:normal;font-variant-caps:normal;font-variant-numeric:normal;font-variant-alternates:normal;font-feature-settings:normal;text-indent:0;text-align:start;text-decoration:none;text-decoration-line:none;text-decoration-style:solid;text-decoration-color:#000;letter-spacing:normal;word-spacing:normal;text-transform:none;writing-mode:lr-tb;direction:ltr;text-orientation:mixed;dominant-baseline:auto;baseline-shift:baseline;text-anchor:start;white-space:normal;shape-padding:0;clip-rule:nonzero;display:inline;overflow:visible;visibility:visible;opacity:1;isolation:auto;mix-blend-mode:normal;color-interpolation:sRGB;color-interpolation-filters:linearRGB;solid-color:#000;solid-opacity:1;vector-effect:none;fill:#1e1e2e;fill-opacity:1;fill-rule:nonzero;stroke:none;stroke-width:1.99994516;stroke-linecap:round;stroke-linejoin:round;stroke-miterlimit:4;stroke-dasharray:none;stroke-dashoffset:0;stroke-opacity:1;paint-order:normal;color-rendering:auto;image-rendering:auto;shape-rendering:auto;text-rendering:auto;enable-background:accumulate"/>
    <path d="M9 11.004 17 16l-8 5.004c1.02-1.109 1.999-3 2-5.004s-.985-3.888-2-4.996M21 6h1v20h-1z" style="opacity:1;fill:#eba0ac;fill-opacity:1;stroke:none;stroke-width:0;stroke-linecap:round;stroke-linejoin:round;stroke-miterlimit:4;stroke-dasharray:none;stroke-dashoffset:0;stroke-opacity:1;paint-order:normal"/>
</svg>
